site/img/logos/queres.svg

<?xml version="1.0" encoding="UTF-8"?>
<svg width="400px" height="400px" viewBox="0 0 400 400" version="1.1" xmlns="http://www.w3.org/2000/svg" xmlns:xlink="http://www.w3.org/1999/xlink">
    <title>logos/queres</title>
    <g id="logos/queres" stroke="none" stroke-width="1" fill="none" fill-rule="evenodd">
        <path d="M253.558,337.164 C260.164364,337.164 265.711567,342.560671 265.878148,348.684846 L265.882,348.968 L265.882,361.188 C265.882,369.872 261.462,374.292 252.674,374.292 C250.150267,374.292 247.535938,373.974916 245.126959,373.171635 L244.614,372.992 L244.614,366.18 C247.149,367.155 249.364078,367.581563 251.987628,367.631074 L252.518,367.636 C255.627804,367.636 259.087473,366.886288 259.221951,362.49582 L259.226,362.228 L259.226,349.852 C259.226,345.744 256.262,343.924 253.558,343.924 C250.282,343.924 247.89,346.368 247.89,350.008 C247.89,353.648 250.282,355.884 253.558,355.884 C255.000133,355.884 255.973573,355.649653 256.850671,355.38406 L257.25,355.26 L257.25,362.176 C255.898,362.644 254.442,362.852 253.558,362.852 C245.862,362.852 241.234,357.496 241.234,350.112 C241.234,342.728 245.862,337.164 253.558,337.164 Z M225.114,337.164 C232.966,337.164 237.906,343.196 237.906,350.424 C237.906,357.652 232.966,363.684 225.114,363.684 C217.262,363.684 212.322,357.652 212.322,350.424 C212.322,343.196 217.262,337.164 225.114,337.164 Z M184.658,337.164 C192.51,337.164 197.45,343.196 197.45,350.424 C197.45,357.652 192.51,363.684 184.658,363.684 C176.806,363.684 171.866,357.652 171.866,350.424 C171.866,343.196 176.806,337.164 184.658,337.164 Z M109.102,337.164 C115.732,337.164 119.560923,340.665346 121.275572,344.430255 L121.374,344.652 L108.53,354.272 L105.306,350.06 L111.91,344.964 C111.234,344.184 110.038,343.82 108.634,343.82 C105.358,343.82 102.966,346.784 102.966,350.424 C102.966,353.544 105.41,357.028 109.362,357.028 C112.604667,357.028 115.304291,355.102667 115.969719,351.877322 L116.018,351.62 L122.726,352.348 C121.478,359.16 116.226,363.684 109.102,363.684 C101.25,363.684 96.31,357.652 96.31,350.424 C96.31,343.196 101.25,337.164 109.102,337.164 Z M294.066,337.164 C301.5412,337.164 306.39496,341.801932 306.542537,348.198866 L306.546,348.5 L306.546,363.06 L299.89,363.06 L299.89,348.812 C299.89,345.796 297.602,343.82 293.962,343.82 C290.79,343.82 288.346,346.732 288.346,350.424 C288.346,353.804 290.79,356.508 294.17,356.508 C295.493636,356.508 296.516446,356.250149 297.629113,355.851651 L297.966,355.728 L297.966,362.644 C296.458,363.008 295.106,363.268 293.754,363.268 C285.954,363.268 281.69,357.288 281.69,350.684 C281.69,342.572 287.098,337.164 294.066,337.164 Z M142.642,337.788 L142.642,344.444 L138.222,344.444 C134.53,344.444 132.19,346.94 132.19,350.424 C132.19,353.828818 134.424845,356.290035 137.972379,356.40015 L138.222,356.404 L142.642,356.404 L142.642,363.06 L138.014,363.06 C130.214,363.06 125.534,358.172 125.534,350.424 C125.534,342.789941 130.077365,337.932383 137.671912,337.791165 L138.014,337.788 L142.642,337.788 Z M277.582,337.788 L277.582,363.06 L270.926,363.06 L270.926,337.788 L277.582,337.788 Z M208.214,326.66 L208.214,363.06 L201.558,363.06 L201.558,326.66 L208.214,326.66 Z M157.202,337.164 C163.28331,337.164 167.506394,339.976452 167.650209,345.305217 L167.654,345.588 L167.654,363.06 L160.998,363.06 L160.998,347.876 C160.998,345.276 159.646,343.82 157.202,343.82 C154.834375,343.82 153.491566,345.186422 153.409953,347.635611 L153.406,347.876 L153.406,363.06 L146.75,363.06 L146.75,345.588 C146.75,340.076 151.014,337.164 157.202,337.164 Z M326.618,337.788 L326.618,344.028 L318.797304,344.028884 C318.00888,344.04074 317.258,344.184 317.258,345.172 C317.258,347.46 327.97,348.708 327.97,355.364 C327.97,360.314593 324.363383,362.960957 319.706691,363.057273 L319.442,363.06 L310.134,363.06 L310.134,356.82 L318.714,356.82 C319.962,356.82 320.586,356.196 320.586,355.416 C320.586,352.244 310.394,351.516 310.394,345.224 C310.394,339.863273 314.103345,337.861006 318.372281,337.789969 L318.61,337.788 L326.618,337.788 Z M98.13,326.66 L98.13,333.94 L90.226,333.94 L90.226,363.06 L82.53,363.06 L82.53,333.94 L74.626,333.94 L74.626,326.66 L98.13,326.66 Z M225.114,343.82 C221.422,343.82 218.978,346.212 218.978,350.424 C218.978,354.636 221.422,357.028 225.114,357.028 C228.806,357.028 231.25,354.636 231.25,350.424 C231.25,346.212 228.806,343.82 225.114,343.82 Z M184.658,343.82 C180.966,343.82 178.522,346.212 178.522,350.424 C178.522,354.636 180.966,357.028 184.658,357.028 C188.35,357.028 190.794,354.636 190.794,350.424 C190.794,346.212 188.35,343.82 184.658,343.82 Z M282.782,326.66 L275.086,334.148 L269.938,334.148 L274.774,326.66 L282.782,326.66 Z M109.807,246.812 C126.318,246.812 137.931,259.847 138.010966,275.41 C138.088215,289.40959 128.720216,300.621776 115.961655,303.450842 L115.574,303.534 L115.574,311.118 L105.462,311.118 L105.462,283.942 L115.574,283.942 L115.574,291.526 C121.262,290.42 126.318,282.678 126.318,275.41 C126.318,266.167 120.156,258.188 109.807,258.188 C99.458,258.188 93.296,266.167 93.296,275.41 C93.296,281.29392 95.7238912,286.72261 101.546278,290.506405 L101.907,290.736 L101.907,303.06 C90.294,299.584 81.604,288.998 81.604,275.41 C81.604,259.847 93.296,246.812 109.807,246.812 Z M201.368,263.718 C211.48,263.718 217.303076,269.079155 219.892963,274.824428 L220.012,275.094 L200.499,289.709 L195.601,283.31 L205.634,275.568 C204.607,274.383 202.79,273.83 200.657,273.83 C195.68,273.83 192.046,278.333 192.046,283.863 C192.046,288.603 195.759,293.896 201.763,293.896 C206.723604,293.896 210.847691,290.930167 211.822284,285.96846 L211.875,285.68 L222.066,286.786 C220.17,297.135 212.191,304.008 201.368,304.008 C189.439,304.008 181.934,294.844 181.934,283.863 C181.934,272.882 189.439,263.718 201.368,263.718 Z M271.599,263.718 C281.711,263.718 287.534076,269.079155 290.123963,274.824428 L290.243,275.094 L270.73,289.709 L265.832,283.31 L275.865,275.568 C274.838,274.383 273.021,273.83 270.888,273.83 C265.911,273.83 262.277,278.333 262.277,283.863 C262.277,288.603 265.99,293.896 271.994,293.896 C276.954604,293.896 281.078691,290.930167 282.053284,285.96846 L282.106,285.68 L292.297,286.786 C290.401,297.135 282.422,304.008 271.599,304.008 C259.67,304.008 252.165,294.844 252.165,283.863 C252.165,272.882 259.67,263.718 271.599,263.718 Z M154.521,264.666 L154.521,287.734 C154.521,291.684 156.575,293.896 160.288,293.896 C163.916614,293.896 165.960779,291.783403 166.051822,288.000619 L166.055,287.734 L166.055,264.666 L176.167,264.666 L176.167,291.21 C176.167,299.584 169.689,304.008 160.288,304.008 C151.010697,304.008 144.57998,299.699655 144.412357,291.5385 L144.409,291.21 L144.409,264.666 L154.521,264.666 Z M249.163,264.192 L249.163,274.936 L246.714,274.936 C241.748286,274.936 238.459054,278.288966 238.343165,283.947095 L238.34,284.258 L238.34,303.06 L227.596,303.06 L227.596,264.666 L237.155,264.666 L237.155,271.934 L237.313,271.934 C239.012378,267.0676 242.599953,264.315981 246.746435,264.19609 L247.03,264.192 L249.163,264.192 Z M321.053,264.666 L321.053,274.146 L309.22062,274.146714 L308.941401,274.153586 C307.831716,274.198667 306.833,274.479556 306.833,275.884 C306.833,279.36 323.107,281.256 323.107,291.368 C323.107,298.916627 317.587524,302.938922 310.475363,303.057309 L310.151,303.06 L296.01,303.06 L296.01,293.58 L309.045,293.58 C310.941,293.58 311.889,292.632 311.889,291.447 C311.889,286.628 296.405,285.522 296.405,275.963 C296.405,267.7865 302.085164,264.752852 308.603098,264.667845 L308.887,264.666 L321.053,264.666 Z M200.25,25.708 C256.168831,25.708 301.5,69.7755398 301.5,124.134463 C301.5,170.715611 268.212927,209.739027 223.500871,219.952483 L223.5,244.56 L183.5,244.56 L183.5,144.56 L223.5,144.56 L223.500285,172.406259 C241.551889,163.603782 253.943118,145.437745 253.943118,124.456187 C253.943118,94.8516189 229.273844,70.8523745 198.842752,70.8523745 L178.499102,70.852 L178.499102,25.708 L200.25,25.708 Z M178.5,166.06 L178.5,213.06 L138.5,213.06 L138.5,166.06 L178.5,166.06 Z M138.5,119.06 L138.5,166.06 L98.5,166.06 L98.5,119.06 L138.5,119.06 Z M178.5,72.06 L178.5,119.06 L138.5,119.06 L138.5,72.06 L178.5,72.06 Z" id="Shape" fill="#FFFFFF" fill-rule="nonzero"></path>
    </g>
</svg>

<svg width="400" height="400" viewBox="0 0 400 400" xmlns="http://www.w3.org/2000/svg"><path d="M253.558 337.164c6.606 0 12.154 5.397 12.32 11.52l.004.284v12.22c0 8.684-4.42 13.104-13.208 13.104-2.524 0-5.138-.317-7.547-1.12l-.513-.18v-6.812c2.535.975 4.75 1.402 7.374 1.451l.53.005c3.11 0 6.57-.75 6.704-5.14l.004-.268v-12.376c0-4.108-2.964-5.928-5.668-5.928-3.276 0-5.668 2.444-5.668 6.084 0 3.64 2.392 5.876 5.668 5.876 1.442 0 2.416-.234 3.293-.5l.399-.124v6.916c-1.352.468-2.808.676-3.692.676-7.696 0-12.324-5.356-12.324-12.74s4.628-12.948 12.324-12.948zm-28.444 0c7.852 0 12.792 6.032 12.792 13.26s-4.94 13.26-12.792 13.26c-7.852 0-12.792-6.032-12.792-13.26s4.94-13.26 12.792-13.26zm-40.456 0c7.852 0 12.792 6.032 12.792 13.26s-4.94 13.26-12.792 13.26c-7.852 0-12.792-6.032-12.792-13.26s4.94-13.26 12.792-13.26zm-75.556 0c6.63 0 10.459 3.501 12.174 7.266l.098.222-12.844 9.62-3.224-4.212 6.604-5.096c-.676-.78-1.872-1.144-3.276-1.144-3.276 0-5.668 2.964-5.668 6.604 0 3.12 2.444 6.604 6.396 6.604 3.243 0 5.942-1.925 6.608-5.15l.048-.258 6.708.728c-1.248 6.812-6.5 11.336-13.624 11.336-7.852 0-12.792-6.032-12.792-13.26s4.94-13.26 12.792-13.26zm184.964 0c7.475 0 12.329 4.638 12.477 11.035l.003.301v14.56h-6.656v-14.248c0-3.016-2.288-4.992-5.928-4.992-3.172 0-5.616 2.912-5.616 6.604 0 3.38 2.444 6.084 5.824 6.084 1.324 0 2.346-.258 3.46-.656l.336-.124v6.916c-1.508.364-2.86.624-4.212.624-7.8 0-12.064-5.98-12.064-12.584 0-8.112 5.408-13.52 12.376-13.52zm-151.424.624v6.656h-4.42c-3.692 0-6.032 2.496-6.032 5.98 0 3.405 2.235 5.866 5.782 5.976l.25.004h4.42v6.656h-4.628c-7.8 0-12.48-4.888-12.48-12.636 0-7.634 4.543-12.492 12.138-12.633l.342-.003h4.628zm134.94 0v25.272h-6.656v-25.272h6.656zm-69.368-11.128v36.4h-6.656v-36.4h6.656zm-51.012 10.504c6.081 0 10.304 2.812 10.448 8.141l.004.283v17.472h-6.656v-15.184c0-2.6-1.352-4.056-3.796-4.056-2.368 0-3.71 1.366-3.792 3.816l-.004.24v15.184h-6.656v-17.472c0-5.512 4.264-8.424 10.452-8.424zm169.416.624v6.24h-7.82c-.79.013-1.54.156-1.54 1.144 0 2.288 10.712 3.536 10.712 10.192 0 4.95-3.607 7.597-8.263 7.693l-.265.003h-9.308v-6.24h8.58c1.248 0 1.872-.624 1.872-1.404 0-3.172-10.192-3.9-10.192-10.192 0-5.36 3.71-7.363 7.978-7.434l.238-.002h8.008zM98.13 326.66v7.28h-7.904v29.12H82.53v-29.12h-7.904v-7.28H98.13zm126.984 17.16c-3.692 0-6.136 2.392-6.136 6.604s2.444 6.604 6.136 6.604 6.136-2.392 6.136-6.604-2.444-6.604-6.136-6.604zm-40.456 0c-3.692 0-6.136 2.392-6.136 6.604s2.444 6.604 6.136 6.604 6.136-2.392 6.136-6.604-2.444-6.604-6.136-6.604zm98.124-17.16l-7.696 7.488h-5.148l4.836-7.488h8.008zm-172.975-79.848c16.511 0 28.124 13.035 28.204 28.598.077 14-9.29 25.212-22.05 28.04l-.387.084v7.584h-10.112v-27.176h10.112v7.584c5.688-1.106 10.744-8.848 10.744-16.116 0-9.243-6.162-17.222-16.511-17.222s-16.511 7.979-16.511 17.222c0 5.884 2.428 11.313 8.25 15.096l.361.23v12.324c-11.613-3.476-20.303-14.062-20.303-27.65 0-15.563 11.692-28.598 28.203-28.598zm91.561 16.906c10.112 0 15.935 5.361 18.525 11.106l.119.27-19.513 14.615-4.898-6.399 10.033-7.742c-1.027-1.185-2.844-1.738-4.977-1.738-4.977 0-8.611 4.503-8.611 10.033 0 4.74 3.713 10.033 9.717 10.033 4.96 0 9.085-2.966 10.06-7.928l.052-.288 10.191 1.106c-1.896 10.349-9.875 17.222-20.698 17.222-11.929 0-19.434-9.164-19.434-20.145s7.505-20.145 19.434-20.145zm70.231 0c10.112 0 15.935 5.361 18.525 11.106l.119.27-19.513 14.615-4.898-6.399 10.033-7.742c-1.027-1.185-2.844-1.738-4.977-1.738-4.977 0-8.611 4.503-8.611 10.033 0 4.74 3.713 10.033 9.717 10.033 4.96 0 9.085-2.966 10.06-7.928l.052-.288 10.191 1.106c-1.896 10.349-9.875 17.222-20.698 17.222-11.929 0-19.434-9.164-19.434-20.145s7.505-20.145 19.434-20.145zm-117.078.948v23.068c0 3.95 2.054 6.162 5.767 6.162 3.629 0 5.673-2.113 5.764-5.895l.003-.267v-23.068h10.112v26.544c0 8.374-6.478 12.798-15.879 12.798-9.277 0-15.708-4.308-15.876-12.47l-.003-.328v-26.544h10.112zm94.642-.474v10.744h-2.449c-4.966 0-8.255 3.353-8.37 9.011l-.004.311v18.802h-10.744v-38.394h9.559v7.268h.158c1.7-4.866 5.287-7.618 9.433-7.738l.284-.004h2.133zm71.89.474v9.48h-11.832l-.28.008c-1.11.045-2.108.326-2.108 1.73 0 3.476 16.274 5.372 16.274 15.484 0 7.549-5.52 11.57-12.632 11.69l-.324.002H296.01v-9.48h13.035c1.896 0 2.844-.948 2.844-2.133 0-4.819-15.484-5.925-15.484-15.484 0-8.177 5.68-11.21 12.198-11.295l.284-.002h12.166zM200.25 25.708c55.919 0 101.25 44.068 101.25 98.426 0 46.582-33.287 85.605-78 95.818v24.608h-40v-100h40v27.846c18.052-8.802 30.443-26.968 30.443-47.95 0-29.604-24.67-53.604-55.1-53.604h-20.344V25.708h21.751zM178.5 166.06v47h-40v-47h40zm-40-47v47h-40v-47h40zm40-47v47h-40v-47h40z" fill="#FFF" fill-rule="nonzero"/></svg>
